Papirus/48x48/apps/distributor-logo-openmandriva.svg

<svg width="48" height="48" version="1.1" xmlns="http://www.w3.org/2000/svg">
 <circle cx="24" cy="25" r="20" style="opacity:.2"/>
 <circle cx="24" cy="24" r="20" style="fill:#248afd"/>
 <path d="M 24,4 A 20,20 0 0 0 4,24 20,20 0 0 0 4.0215,24.582 20,20 0 0 1 24,5 20,20 0 0 1 43.979,24.418 20,20 0 0 0 44,24 20,20 0 0 0 24,4 Z" style="fill:#ffffff;opacity:.2"/>
 <path d="M 24,8 A 17,17 0 0 0 7,25 17,17 0 0 0 24,42 17,17 0 0 0 40.568359,28.749186 12.75,12.75 0 0 1 29.666667,34.916666 12.75,12.75 0 0 1 16.916666,22.166667 12.75,12.75 0 0 1 29.666667,9.4166667 12.75,12.75 0 0 1 30.903483,9.4775387 17,17 0 0 0 24,8 Z m 5.666667,2.833333 A 11.333334,11.333332 0 0 0 18.333334,22.166667 11.333334,11.333332 0 0 0 29.666667,33.5 11.333334,11.333332 0 0 0 41,22.166667 11.333334,11.333332 0 0 0 29.666667,10.833333 Z m 0,2.833335 a 8.5000001,8.4999999 0 0 1 8.5,8.499999 8.5000001,8.4999999 0 0 1 -8.5,8.499999 8.5000001,8.4999999 0 0 1 -8.500001,-8.499999 8.5000001,8.4999999 0 0 1 8.500001,-8.499999 z" style="opacity:.2"/>
 <path d="M 24,7 A 17,17 0 0 0 7,24 17,17 0 0 0 24,41 17,17 0 0 0 40.568359,27.749186 12.75,12.75 0 0 1 29.666667,33.916666 12.75,12.75 0 0 1 16.916666,21.166667 12.75,12.75 0 0 1 29.666667,8.4166667 12.75,12.75 0 0 1 30.903483,8.4775392 17,17 0 0 0 24,7 Z m 5.666667,2.833333 A 11.333334,11.333332 0 0 0 18.333334,21.166667 11.333334,11.333332 0 0 0 29.666667,32.5 11.333334,11.333332 0 0 0 41,21.166667 11.333334,11.333332 0 0 0 29.666667,9.833333 Z m 0,2.833335 a 8.5000001,8.4999999 0 0 1 8.5,8.499999 8.5000001,8.4999999 0 0 1 -8.5,8.499999 8.5000001,8.4999999 0 0 1 -8.500001,-8.499999 8.5000001,8.4999999 0 0 1 8.500001,-8.499999 z" style="fill:#ffffff"/>
</svg>

<svg xmlns="http://www.w3.org/2000/svg" width="48" height="48" version="1.1">
 <circle style="opacity:0.2" cx="24" cy="25" r="20"/>
 <circle style="fill:#248afd" cx="24" cy="24" r="20"/>
 <path style="opacity:0.2;fill:#ffffff" d="M 24,4 A 20,20 0 0 0 4,24 20,20 0 0 0 4.0215,24.582 20,20 0 0 1 24,5 20,20 0 0 1 43.979,24.418 20,20 0 0 0 44,24 20,20 0 0 0 24,4 Z"/>
 <path style="opacity:0.2" d="M 24,8 A 17,17 0 0 0 7,25 17,17 0 0 0 24,42 17,17 0 0 0 40.568,28.749 12.75,12.75 0 0 1 29.667,34.917 12.75,12.75 0 0 1 16.917,22.167 12.75,12.75 0 0 1 29.667,9.4167 12.75,12.75 0 0 1 30.903,9.4775 17,17 0 0 0 24,8 Z M 29.667,10.833 A 11.333,11.333 0 0 0 18.333,22.167 11.333,11.333 0 0 0 29.667,33.5 11.333,11.333 0 0 0 41,22.167 11.333,11.333 0 0 0 29.667,10.833 Z M 29.667,13.667 A 8.5,8.5 0 0 1 38.167,22.167 8.5,8.5 0 0 1 29.667,30.667 8.5,8.5 0 0 1 21.167,22.167 8.5,8.5 0 0 1 29.667,13.667 Z"/>
 <path style="fill:#ffffff" d="M 24,7 A 17,17 0 0 0 7,24 17,17 0 0 0 24,41 17,17 0 0 0 40.568,27.749 12.75,12.75 0 0 1 29.667,33.917 12.75,12.75 0 0 1 16.917,21.167 12.75,12.75 0 0 1 29.667,8.4167 12.75,12.75 0 0 1 30.903,8.4775 17,17 0 0 0 24,7 Z M 29.667,9.8333 A 11.333,11.333 0 0 0 18.333,21.167 11.333,11.333 0 0 0 29.667,32.5 11.333,11.333 0 0 0 41,21.167 11.333,11.333 0 0 0 29.667,9.8333 Z M 29.667,12.667 A 8.5,8.5 0 0 1 38.167,21.167 8.5,8.5 0 0 1 29.667,29.667 8.5,8.5 0 0 1 21.167,21.167 8.5,8.5 0 0 1 29.667,12.667 Z"/>
</svg>
